X:1
T:Title
%%score [ ( 1 2 3 4 ) ( 5 6 7 8 ) ]
L:1/8
Q:1/4=120
M:9/8
K:Bb
V:1 treble nm="Midi_74" snm=" "
V:2 treble 
V:3 treble 
V:4 treble 
V:5 bass nm="Midi_74"
V:6 bass 
V:7 bass 
V:8 bass 
V:1
"^Thomas Moore" d z B BAB d"^Quick! We have but a second"cB | %1
w: Quick! We have but a sec- ond, Fill|
w: See the glass how it flush- es, Like|
 e2 c (cd)B A z"^Irish Air""^arr. C.V. Stanford" F | d2 B (BA)B dcB | cde (FG)A B2 z | %4
w: round the cup while you may: For|Time, the churl, * hath beck- on'd, And|we must a- way, * a- way!|
w: some young He * be's lip, And|half meets thine, * and blush- es That|thou should de- lay * to sip.|
 f3- f2 f f2 F | G2 c (cd)B (cd)e | f2 g f3- f2 B | (cd)e (FG)A B2 c | .d z B BAB dcB | %9
w: Grasp * the plea- sure,|Oh! Not Or * pheus' strain * could|keep sweet hours, * Or|charm them to life * a- gain. Then|quick! We have but a sec- ond, Fill|
w: Shame, * Oh shame, If|e'er thou see * that day * When~a|cup or lip, * And|turn * un- touch'd * a- way. *||
 e2 c cdB (AB)c | d2 B (BA)B dc z |[M:12/8] z2 B cde F z z z2 A | %12
w: round the cup while you may, * For|Time, the churl, * hath beck- on'd,|And we must a- way, a-|
w: |||
[M:6/8]"^(straight on to repeat)" B z z z3 :| %13
w: way!|
w: |
V:2
 B z F FFF FFB | B2 G (GG)G (AG)F | F2 F F2 F FFF | BBB F z F F2 z | x9 | x6 x2 e/e/ | %6
 [DB]2 [DB] [DB]3- [DB]2 [DF] | (GG)G E2 E D2 F | .F z F FFF FFF | G2 G GGG F2 F | %10
 F2 G (GA)G GG z |[M:12/8] z2 G GGG F z z z2 F |[M:6/8] F z z z3 :| %13
V:3
 x9 | x9 | x9 | x9 | x9 | x6 x2 F/F/ | x9 | x9 | x9 | x9 | x9 |[M:12/8] x12 |[M:6/8] x6 :| %13
V:4
 x9 | x9 | x9 | x9 | [DB]3- [DB]2 [DB] [DB]2 F | G2 G G2 G F2 F | x9 | x9 | x9 | x9 | x9 | %11
[M:12/8] x12 |[M:6/8] x6 :| %13
V:5
 F z D DCD FED | G2 E (EF)D (CB,)A, | B,2 D D2 D B,CD | EFG F z E D2 z | F2 F, (F,G,)E, D,F,B, | %5
 G,2 G, G,2 D (A,B,)C |"^This edition  Andrew Sims 2001" F2 F, (F,G,)E, D,F,B, | %7
 (ED)C (A,B,)C B,2 E | .D z D DED DED | B,2 C CED C2 C | B,2 D D2 D DD z | %11
[M:12/8] z2 D EDC F z z z2 C |[M:6/8] D z z z3 :| %13
V:6
 B, x B, B,B,B, B,B,B, | E,2 E, (E,E,)E, F, z F, | B,2 B, B,2 B, _A,A,A, | G,F,E, F, z F, B,2 z | %4
w: ||||
w: ||||
 x9 | x6 x2 C/C/ | F,2 F, (F,G,)E, D,F,B, | (E,E,)E, F,2 F, G,2 A, | .B, z B, B,CB, B,B,B, | %9
w: ||keep sweet hours * from dy- ing, Or|charm them to life a- gain. *||
w: ||cup or lip * shall woo thee, And|turn * un- touch'd a- way. *||
 E,2 E, E,C,E, (F,G,)A, | B,2 G, (G,^F,)G, B,A, z |[M:12/8] z2 G, E,F,G, F, z z z2 F, | %12
w: |||
w: |||
[M:6/8] B, z z z3 :| %13
w: |
w: |
V:7
 x9 | x9 | x9 | x9 | x9 | x6 x2 F,/F,/ | x9 | x9 | x9 | x9 | x9 |[M:12/8] x12 |[M:6/8] x6 :| %13
V:8
 x9 | x9 | x9 | x9 | F,2 F, (F,G,)E, D,F,B, | E,2 E, =E,2 E, F,2 F, | x9 | x9 | x9 | x9 | x9 | %11
w: ||||Grasp the plea- sure that's fly- ing, For|Oh! Not Or- pheus' strain could||||||
w: ||||Shame, Oh shame * un- to thee If|e'er thou see that day When~a||||||
[M:12/8] x12 |[M:6/8] x6 :| %13
w: ||
w: ||

